public/assets/images/icons/yellow/visibility-invisible/folder-date-empty.svg

<svg width="16" height="16" xmlns="http://www.w3.org/2000/svg" viewBox="0 0 16 16" shape-rendering="geometricPrecision" fill="#ffad00"><defs><mask id="a"><rect fill="#fff" width="100%" height="100%"/><path d="M12.997.858a4.809 4.809 0 0 0-4.253 2.563 4.81 4.81 0 0 0 8.506 0A4.812 4.812 0 0 0 12.997.858z" fill="#000"/></mask></defs><path d="M12.997 1.611a3.394 3.394 0 0 0-3.003 1.81 3.397 3.397 0 0 0 6.006 0 3.398 3.398 0 0 0-3.003-1.81zm-.001 3.396a1.587 1.587 0 1 1 0-3.174 1.587 1.587 0 0 1 0 3.174z" fill="#cb1800"/><g mask="url(#a)"><path d="M7.394 4.755l-.816-1.923h-3.78l-.816 1.923H.861V14h14.278V4.755H7.394zm6.648 8.174H1.916v-7h12.125v7z"/><path d="M8.006 6.979a2.49 2.49 0 1 0 0 4.98 2.49 2.49 0 0 0 0-4.98zm0 4.475A1.988 1.988 0 0 1 6.02 9.47a1.99 1.99 0 0 1 1.986-1.987A1.99 1.99 0 0 1 9.992 9.47a1.989 1.989 0 0 1-1.986 1.984z"/><path d="M7.639 7.792v1.545l-.956.556.378.663 1.334-.775h.008l-.001-1.989z"/></g></svg>

<?xml version="1.0"?><!DOCTYPE svg PUBLIC "-//W3C//DTD SVG 1.1//EN" "http://www.w3.org/Graphics/SVG/1.1/DTD/svg11.dtd"><svg width="16px" height="16px" xmlns="http://www.w3.org/2000/svg" viewBox="0 0 16 16" shape-rendering="geometricPrecision" fill="#ffad00"><defs><mask id="visibility-invisible-path"><rect fill="#fff" width="100%" height="100%"/><path d="M12.997,0.858c-1.845,0-3.446,1.039-4.253,2.563c0.808,1.523,2.408,2.562,4.253,2.562 c1.844,0,3.444-1.039,4.253-2.562C16.441,1.897,14.841,0.858,12.997,0.858z" fill="#000"/></mask></defs><g id="visibility-invisible" display="inline" fill="#cb1800"><g><g><path d="M12.997,1.611c-1.303,0-2.433,0.733-3.003,1.81c0.57,1.075,1.7,1.809,3.003,1.809c1.302,0,2.432-0.733,3.003-1.809 C15.429,2.345,14.299,1.611,12.997,1.611z M12.996,5.007c-0.876,0-1.587-0.71-1.587-1.586c0-0.877,0.711-1.588,1.587-1.588 c0.877,0,1.588,0.711,1.588,1.588C14.584,4.297,13.873,5.007,12.996,5.007z"/></g></g></g><g mask="url(#visibility-invisible-path)"><path d="M7.394,4.755L6.578,2.832H2.798L1.982,4.755H0.861V14h14.278V4.755H7.394z M14.042,12.929H1.916v-7 h12.125V12.929z"/><g><path d="M8.006,6.979c-1.375,0-2.49,1.115-2.49,2.491c0,1.374,1.115,2.488,2.49,2.489c1.375-0.001,2.489-1.115,2.489-2.489 C10.495,8.094,9.381,6.979,8.006,6.979z M8.006,11.454C6.909,11.452,6.022,10.565,6.02,9.47c0.002-1.097,0.89-1.985,1.986-1.987 C9.102,7.485,9.99,8.372,9.992,9.47C9.99,10.565,9.102,11.452,8.006,11.454z"/><polygon points="7.639,7.792 7.639,9.337 6.683,9.893 7.061,10.556 8.395,9.781 8.403,9.781 8.402,7.792"/></g></g></svg>
